X:1
T:Fjällvandrarsång
T:W. Peterson-Berger (1867-1942)
T:(med uttryck men utan nämvärda nyanser)
T:Fjällvandrarsång
T:©CPDL Edition may be freely distributed, duplicated, performed and recorded PA Aglert
T:©CPDL Edition may be freely distributed, duplicated, performed and recorded PA Aglert
C:W. Peterson-Berger (1867-1942)
Z:©CPDL Edition may be freely distributed, duplicated, performed and recorded
Z:PA Aglert
%%score [ 1 2 3 4 ]
L:1/8
Q:1/4=120
M:2/4
K:F
V:1 treble nm="S"
V:2 treble nm="A"
V:3 treble-8 nm="T"
V:4 bass nm="B"
V:1
"^Alla marcia" c2 c2 | A2 G2 | F2 ED | F2 Ad | c2 c2 | =B2 GB | d2 ed | A2 FA | (cf) ec | %9
w: Bort från|sta- dens|o- ro och|kvalm vill jag|dra- ga,|bort ö- ver|stig- lö- sa|vid- der i|sol- * sken och|
w: Sorg- löst,|vän- ner,|fram ge- nom|sko- gar vi|tå- ga,|in un- der|gra- nar- nas|vil- lan- de|dun- * kel och|
 !fermata!d4 | e2 fc | d2 eA | =B2 cE | A2 =Bc | (G2 g2) | e4 | d2 A=B | A2 G2 | D2 F2 | (ce) dE | %20
w: vind.|Fjäll- glans i|ö- gat och|fjäll- luft i|bröst vill jag|ta- *|ga,|kän- na för-|ny- ad|häl- sans|färg _ på min|
w: sus!|Snart de sig|öpp- na och|snart som en|blå- nan- de|lå- *|ga|skå- da vi|må- let,|sti- ga|upp _ mot dess|
 !fermata!F4 |] %21
w: kind.|
w: ljus.|
V:2
 c2 c2 | A2 G2 | F2 ED | F2 FE | F2 A2 | G2 GG | G2 GG | F2 FF | F2 FF | !fermata!B4 | B2 AF | %11
w: Bort från|sta- dens|o- ro och|kvalm vill jag|dra- ga,|bort ö- ver|stig- lö- sa|vid- der i|sol- sken och|vind.|Fjäll- glans i|
w: Sorg- löst,|vän- ner,|fram ge- nom|sko- gar vi|tå- ga,|in un- der|gra- nar- nas|vil- lan- de|dun- kel och|sus!|Snart de sig|
 A2 ^GA | F2 ED | C2 D^D | E2 E2 | G2 AG | ^F2 F2 | !courtesy!=F4 | D4 | E2 FE | !fermata!F4 |] %21
w: ö- gat och|fjäll- luft i|bröst vill jag|ta- ga,|kän- na för-|ny- ad|häl-|sans|färg på min|kind.|
w: öpp- na och|snart som en|blå- nan- de|lå- ga|skå- da vi|må- let,|sti-|ga|upp mot dess|ljus.|
V:3
 c2 c2 | A2 G2 | F2 ED | F2 cB | A2 c2 | d2 =Bd | =B2 AB | c2 Ac | A2 ce | !fermata!f4 | c2 cA | %11
w: Bort från|sta- dens|o- ro och|kvalm vill jag|dra- ga,|bort ö- ver|stig- lö- sa|vid- der i|sol- sken och|vind.|Fjäll- glans i|
w: Sorg- löst,|vän- ner,|fram ge- nom|sko- gar vi|tå- ga,|in un- der|gra- nar- nas|vil- lan- de|dun- kel och|sus!|Snart de sig|
 =B2 cF | A2 A^G | A2 cA | c4 | c4 | c2 cc | c2 =B2 | !courtesy!_B2 A2 | B2 BB | !fermata!A4 |] %21
w: ö- gat och|fjäll- luft i|bröst vill jag|ta-|ga,|kän- na för-|ny- ad|häl- sans|färg på min|kind.|
w: öpp- na och|snart som en|blå- nan- de|lå-|ga|skå- da vi|må- let,|sti- ga|upp mot dess|ljus.|
V:4
 C2 C2 | A,2 G,2 | F,2 E,D, | F,2 F,F, | F,2 F,2 | F,2 F,F, | F,2 F,F, | F,2 E,E, | D,2 A,A, | %9
w: Bort från|sta- dens|o- ro och|kvalm vill jag|dra- ga,|bort ö- ver|stig- lö- sa|vid- der i|sol- sken och|
w: Sorg- löst,|vän- ner,|fram ge- nom|sko- gar vi|tå- ga,|in un- der|gra- nar- nas|vil- lan- de|dun- kel och|
 !fermata!G,4 | C2 F,A, | F,2 E,F, | D,2 E,E, | F,2 ^F,F, | G,4 | A,4 | D,2 D,D, | D,2 D,2 | %18
w: vind.|Fjäll- glans i|ö- gat och|fjäll- luft i|bröst vill jag|ta-|ga,|kän- na för-|ny- ad|
w: sus!|Snart de sig|öpp- na och|snart som en|blå- nan- de|lå-|ga|skå- da vi|må- let,|
 G,2 B,2 | G,2 C,C, | !fermata!F,4 |] %21
w: häl- sans|färg på min|kind.|
w: sti- ga|upp mot dess|ljus.|

